icons/apps/scalable/lightsoff.svg

<svg width="64" height="64" version="1.1" xmlns="http://www.w3.org/2000/svg">
 <defs>
  <linearGradient id="linearGradient855" x1="30.644" x2="30.373" y1="48.678" y2="15.051" gradientUnits="userSpaceOnUse">
   <stop stop-color="#2673cf" offset="0"/>
   <stop stop-color="#26bbcf" offset="1"/>
  </linearGradient>
  <linearGradient id="linearGradient863" x1="31.322" x2="31.051" y1="48.136" y2="15.322" gradientUnits="userSpaceOnUse">
   <stop stop-color="#2e2e2e" offset="0"/>
   <stop stop-color="#606060" offset="1"/>
  </linearGradient>
  <linearGradient id="linearGradient862-3" x1="7.9373" x2="7.9373" y1="15.081" y2="1.852" gradientTransform="matrix(3.7795 0 0 3.7795 .00014309 .031541)" gradientUnits="userSpaceOnUse">
   <stop stop-color="#f1efeb" offset="0"/>
   <stop stop-color="#fdfcfc" offset="1"/>
  </linearGradient>
  <filter id="filter893" x="-.108" y="-.108" width="1.216" height="1.216" color-interpolation-filters="sRGB">
   <feGaussianBlur stdDeviation="1.4400439"/>
  </filter>
 </defs>
 <g transform="scale(3.7796)" shape-rendering="auto">
  <path d="m4.3693 0.52916c-2.1142 0-3.8402 1.7835-3.8402 3.9682v8.4675c0 2.1846 1.726 3.9682 3.8402 3.9682h8.1944c2.1142 0 3.8402-1.7835 3.8402-3.9682v-8.4675c0-2.1846-1.726-3.9682-3.8402-3.9682zm0.25704 0.52089h7.6808c1.8443 0 3.3291 1.5342 3.3291 3.44v7.9368c0 1.9058-1.4847 3.44-3.3291 3.44h-7.6808c-1.8443 0-3.3291-1.5342-3.3291-3.44v-7.9368c0-1.9058 1.4847-3.44 3.3291-3.44z" color="#000000" color-rendering="auto" dominant-baseline="auto" image-rendering="auto" opacity=".01" solid-color="#000000" stop-color="#000000" style="font-feature-settings:normal;font-variant-alternates:normal;font-variant-caps:normal;font-variant-east-asian:normal;font-variant-ligatures:normal;font-variant-numeric:normal;font-variant-position:normal;font-variation-settings:normal;inline-size:0;isolation:auto;mix-blend-mode:normal;shape-margin:0;shape-padding:0;text-decoration-color:#000000;text-decoration-line:none;text-decoration-style:solid;text-indent:0;text-orientation:mixed;text-transform:none;white-space:normal"/>
  <path d="m4.3587 0.79373c-1.9668 0-3.5639 1.6528-3.5639 3.6876v8.4996c0 2.0348 1.5971 3.6876 3.5639 3.6876h8.2162c1.9668 0 3.5644-1.6528 3.5644-3.6876v-8.4996c0-2.0348-1.5976-3.6876-3.5644-3.6876zm0.27222 0.25631h7.6718c1.8422 0 3.3251 1.5342 3.3251 3.44v7.9368c0 1.9058-1.483 3.44-3.3251 3.44h-7.6718c-1.8422 0-3.3251-1.5342-3.3251-3.44v-7.9368c0-1.9058 1.483-3.44 3.3251-3.44z" color="#000000" color-rendering="auto" dominant-baseline="auto" image-rendering="auto" opacity=".01" solid-color="#000000" stop-color="#000000" style="font-feature-settings:normal;font-variant-alternates:normal;font-variant-caps:normal;font-variant-east-asian:normal;font-variant-ligatures:normal;font-variant-numeric:normal;font-variant-position:normal;font-variation-settings:normal;inline-size:0;isolation:auto;mix-blend-mode:normal;shape-margin:0;shape-padding:0;text-decoration-color:#000000;text-decoration-line:none;text-decoration-style:solid;text-indent:0;text-orientation:mixed;text-transform:none;white-space:normal"/>
  <path d="m4.3097 1.0583c-1.8657 0-3.3751 1.5383-3.3751 3.439v8.4675c0 1.9007 1.57 3.439 3.4357 3.439h8.1996c1.8657 0 3.4274-1.5383 3.4274-3.439v-8.4675c0-1.9007-1.51-3.439-3.3756-3.439h-0.09688c1.794 0.086515 3.2138 1.5819 3.2138 3.4318v7.9368c0 1.9058-1.5059 3.44-3.3766 3.44h-7.7905c-1.8707 0-3.3766-1.5342-3.3766-3.44v-7.9368c0-1.8498 1.4199-3.3451 3.2138-3.4318z" color="#000000" color-rendering="auto" dominant-baseline="auto" image-rendering="auto" opacity=".03" solid-color="#000000" stop-color="#000000" style="font-feature-settings:normal;font-variant-alternates:normal;font-variant-caps:normal;font-variant-east-asian:normal;font-variant-ligatures:normal;font-variant-numeric:normal;font-variant-position:normal;font-variation-settings:normal;inline-size:0;isolation:auto;mix-blend-mode:normal;shape-margin:0;shape-padding:0;text-decoration-color:#000000;text-decoration-line:none;text-decoration-style:solid;text-indent:0;text-orientation:mixed;text-transform:none;white-space:normal"/>
  <path transform="scale(.26458)" d="m4 46.969v2.0312c0 6.6479 5.8957 12 12.544 12h30.961c6.6479 0 12.495-5.3521 12.495-12v-1.9922c-0.021173 7.1849-5.81 12.963-13 12.963h-29.998c-7.2032 0-13.002-5.7987-13.002-13.002z" color="#000000" color-rendering="auto" dominant-baseline="auto" image-rendering="auto" opacity=".03" solid-color="#000000" stop-color="#000000" style="font-feature-settings:normal;font-variant-alternates:normal;font-variant-caps:normal;font-variant-east-asian:normal;font-variant-ligatures:normal;font-variant-numeric:normal;font-variant-position:normal;font-variation-settings:normal;inline-size:0;isolation:auto;mix-blend-mode:normal;shape-margin:0;shape-padding:0;text-decoration-color:#000000;text-decoration-line:none;text-decoration-style:solid;text-indent:0;text-orientation:mixed;text-transform:none;white-space:normal"/>
  <path d="m1.0583 11.906v0.59234c0 1.9386 1.5729 3.4993 3.3318 3.4993h8.1603c1.7589 0 3.3243-1.5608 3.3243-3.4993v-0.58095c-0.0056 2.0952-1.5372 3.7801-3.4395 3.7801h-7.9368c-1.9058 0-3.44-1.691-3.44-3.7915z" color="#000000" color-rendering="auto" dominant-baseline="auto" image-rendering="auto" opacity=".05" solid-color="#000000" stop-color="#000000" style="font-feature-settings:normal;font-variant-alternates:normal;font-variant-caps:normal;font-variant-east-asian:normal;font-variant-ligatures:normal;font-variant-numeric:normal;font-variant-position:normal;font-variation-settings:normal;inline-size:0;isolation:auto;mix-blend-mode:normal;shape-margin:0;shape-padding:0;text-decoration-color:#000000;text-decoration-line:none;text-decoration-style:solid;text-indent:0;text-orientation:mixed;text-transform:none;white-space:normal"/>
 </g>
 <rect x="4" y="4" width="56" height="56" rx="13.002" ry="13.002" fill="url(#linearGradient862-3)" stroke-width="3.7795"/>
 <g stroke-width="1.3333">
  <path d="m18.668 17c-1.4787 0-2.668 1.1873-2.668 2.666v10.668c0 1.4733 1.1893 2.666 2.668 2.666-1.4787 0-2.668 1.1873-2.668 2.666v10.668c0 1.4733 1.1893 2.666 2.668 2.666h10.666c1.4699 0 2.6606-1.1875 2.666-2.6562 0.0053 1.4687 1.1926 2.6562 2.668 2.6562h10.666c1.4733 0 2.668-1.1926 2.668-2.666v-10.668c0-1.4787-1.1946-2.666-2.668-2.666 1.4733 0 2.666-1.1926 2.666-2.666v-10.668c0-1.4787-1.1926-2.666-2.666-2.666h-10.666c-1.4787 0-2.668 1.1873-2.668 2.666 0-1.4787-1.1926-2.666-2.666-2.666zm0 1.334h10.666c0.74 0 1.334 0.59206 1.334 1.332v10.668c0 0.74-0.59402 1.332-1.334 1.332h-10.666c-0.74 0-1.334-0.59206-1.334-1.332v-10.668c0-0.74 0.59402-1.332 1.334-1.332zm16 0h10.666c0.74 0 1.334 0.59206 1.334 1.332v10.668c0 0.74-0.59402 1.332-1.334 1.332h-10.666c-0.74 0-1.334-0.59206-1.334-1.332v-10.668c0-0.74 0.59402-1.332 1.334-1.332zm-14.668 1.332c-0.74 0-1.332 0.59401-1.332 1.334v8c0 0.73467 0.59206 1.334 1.332 1.334h8c0.73467 0 1.334-0.59935 1.334-1.334v-8c0-0.74-0.59935-1.334-1.334-1.334zm16 0c-0.74 0-1.332 0.59401-1.332 1.334v8c0 0.73467 0.59206 1.334 1.332 1.334h8c0.73467 0 1.334-0.59935 1.334-1.334v-8c0-0.74-0.59935-1.334-1.334-1.334zm-4 10.668c0 1.4733 1.1893 2.666 2.668 2.666-1.4754 0-2.6627 1.1822-2.668 2.6562-0.0054-1.474-1.196-2.6562-2.666-2.6562 1.4733 0 2.666-1.1926 2.666-2.666zm-13.332 3.998h10.666c0.74 0 1.334 0.59402 1.334 1.334v10.668c0 0.74-0.59402 1.332-1.334 1.332h-10.666c-0.74 0-1.334-0.59206-1.334-1.332v-10.668c0-0.74 0.59402-1.334 1.334-1.334zm16 0h10.666c0.74 0 1.334 0.59402 1.334 1.334v10.668c0 0.74-0.59402 1.332-1.334 1.332h-10.666c-0.74 0-1.334-0.59206-1.334-1.332v-10.668c0-0.74 0.59402-1.334 1.334-1.334zm-14.668 1.334c-0.74 0-1.332 0.59401-1.332 1.334v8c0 0.73467 0.59206 1.332 1.332 1.332h8c0.73467 0 1.334-0.5974 1.334-1.332v-8c0-0.74-0.59935-1.334-1.334-1.334zm16 0c-0.74 0-1.332 0.59401-1.332 1.334v8c0 0.73467 0.59206 1.332 1.332 1.332h8c0.73467 0 1.334-0.5974 1.334-1.332v-8c0-0.74-0.59935-1.334-1.334-1.334z" filter="url(#filter893)" opacity=".15"/>
  <path d="m18.667 16c-1.4787 0-2.6667 1.188-2.6667 2.6667v10.667c0 1.4733 1.188 2.6667 2.6667 2.6667h10.667c1.4733 0 2.6667-1.1933 2.6667-2.6667v-10.667c0-1.4787-1.1933-2.6667-2.6667-2.6667zm0 1.3333h10.667c0.74 0 1.3333 0.59333 1.3333 1.3333v10.667c0 0.74-0.59333 1.3333-1.3333 1.3333h-10.667c-0.74 0-1.3333-0.59333-1.3333-1.3333v-10.667c0-0.74 0.59333-1.3333 1.3333-1.3333zm1.3333 1.3333c-0.74 0-1.3333 0.59333-1.3333 1.3333v8c0 0.73467 0.59333 1.3333 1.3333 1.3333h8c0.73467 0 1.3333-0.59867 1.3333-1.3333v-8c0-0.74-0.59867-1.3333-1.3333-1.3333zm14.667 13.333c-1.4787 0-2.6667 1.188-2.6667 2.6667v10.667c0 1.4733 1.188 2.6667 2.6667 2.6667h10.667c1.4733 0 2.6667-1.1933 2.6667-2.6667v-10.667c0-1.4787-1.1933-2.6667-2.6667-2.6667zm0 1.3333h10.667c0.74 0 1.3333 0.59333 1.3333 1.3333v10.667c0 0.74-0.59333 1.3333-1.3333 1.3333h-10.667c-0.74 0-1.3333-0.59333-1.3333-1.3333v-10.667c0-0.74 0.59333-1.3333 1.3333-1.3333zm1.3333 1.3333c-0.74 0-1.3333 0.59333-1.3333 1.3333v8c0 0.73467 0.59333 1.3333 1.3333 1.3333h8c0.73467 0 1.3333-0.59867 1.3333-1.3333v-8c0-0.74-0.59867-1.3333-1.3333-1.3333z" fill="url(#linearGradient863)"/>
  <path d="m34.667 16c-1.4787 0-2.6667 1.188-2.6667 2.6667v10.667c0 1.4733 1.188 2.6667 2.6667 2.6667h10.667c1.4733 0 2.6667-1.1933 2.6667-2.6667v-10.667c0-1.4787-1.1933-2.6667-2.6667-2.6667zm0 1.3333h10.667c0.74 0 1.3333 0.59333 1.3333 1.3333v10.667c0 0.74-0.59333 1.3333-1.3333 1.3333h-10.667c-0.74 0-1.3333-0.59333-1.3333-1.3333v-10.667c0-0.74 0.59333-1.3333 1.3333-1.3333zm1.3333 1.3333c-0.74 0-1.3333 0.59333-1.3333 1.3333v8c0 0.73467 0.59333 1.3333 1.3333 1.3333h8c0.73467 0 1.3333-0.59867 1.3333-1.3333v-8c0-0.74-0.59867-1.3333-1.3333-1.3333zm-17.333 13.333c-1.4787 0-2.6667 1.188-2.6667 2.6667v10.667c0 1.4733 1.188 2.6667 2.6667 2.6667h10.667c1.4733 0 2.6667-1.1933 2.6667-2.6667v-10.667c0-1.4787-1.1933-2.6667-2.6667-2.6667zm0 1.3333h10.667c0.74 0 1.3333 0.59333 1.3333 1.3333v10.667c0 0.74-0.59333 1.3333-1.3333 1.3333h-10.667c-0.74 0-1.3333-0.59333-1.3333-1.3333v-10.667c0-0.74 0.59333-1.3333 1.3333-1.3333zm1.3333 1.3333c-0.74 0-1.3333 0.59333-1.3333 1.3333v8c0 0.73467 0.59333 1.3333 1.3333 1.3333h8c0.73467 0 1.3333-0.59867 1.3333-1.3333v-8c0-0.74-0.59867-1.3333-1.3333-1.3333z" fill="url(#linearGradient855)"/>
 </g>
</svg>

<svg xmlns="http://www.w3.org/2000/svg" width="64" height="64"><defs><linearGradient id="d" x1="30.644" x2="30.373" y1="48.678" y2="15.051" gradientUnits="userSpaceOnUse"><stop offset="0" stop-color="#2673cf"/><stop offset="1" stop-color="#26bbcf"/></linearGradient><linearGradient id="c" x1="31.322" x2="31.051" y1="48.136" y2="15.322" gradientUnits="userSpaceOnUse"><stop offset="0" stop-color="#2e2e2e"/><stop offset="1" stop-color="#606060"/></linearGradient><linearGradient id="a" x1="7.937" x2="7.937" y1="15.081" y2="1.852" gradientTransform="translate(0 .032)scale(3.7795)" gradientUnits="userSpaceOnUse"><stop offset="0" stop-color="#f1efeb"/><stop offset="1" stop-color="#fdfcfc"/></linearGradient><filter id="b" width="1.216" height="1.216" x="-.108" y="-.108" color-interpolation-filters="sRGB"><feGaussianBlur stdDeviation="1.44"/></filter></defs><g color="#000"><path d="M4.37.53C2.254.53.53 2.312.53 4.496v8.468c0 2.184 1.725 3.968 3.84 3.968h8.194c2.114 0 3.84-1.783 3.84-3.968V4.497c0-2.184-1.726-3.968-3.84-3.968zm.256.52h7.681c1.844 0 3.33 1.534 3.33 3.44v7.937c0 1.906-1.485 3.44-3.33 3.44h-7.68c-1.845 0-3.33-1.534-3.33-3.44V4.49c0-1.906 1.485-3.44 3.33-3.44z" opacity=".01" style="font-feature-settings:normal;font-variant-alternates:normal;font-variant-caps:normal;font-variant-east-asian:normal;font-variant-ligatures:normal;font-variant-numeric:normal;font-variant-position:normal;font-variation-settings:normal;inline-size:0;isolation:auto;mix-blend-mode:normal;shape-margin:0;shape-padding:0;text-decoration-color:#000;text-decoration-line:none;text-decoration-style:solid;text-indent:0;text-orientation:mixed;text-transform:none;white-space:normal" transform="scale(3.7796)"/><path d="M4.359.794C2.392.794.795 2.447.795 4.48v8.5c0 2.035 1.597 3.688 3.564 3.688h8.216c1.967 0 3.564-1.653 3.564-3.688v-8.5c0-2.034-1.597-3.687-3.564-3.687zm.272.256h7.672c1.842 0 3.325 1.534 3.325 3.44v7.937c0 1.906-1.483 3.44-3.325 3.44H4.63c-1.842 0-3.325-1.534-3.325-3.44V4.49c0-1.906 1.483-3.44 3.325-3.44z" opacity=".01" style="font-feature-settings:normal;font-variant-alternates:normal;font-variant-caps:normal;font-variant-east-asian:normal;font-variant-ligatures:normal;font-variant-numeric:normal;font-variant-position:normal;font-variation-settings:normal;inline-size:0;isolation:auto;mix-blend-mode:normal;shape-margin:0;shape-padding:0;text-decoration-color:#000;text-decoration-line:none;text-decoration-style:solid;text-indent:0;text-orientation:mixed;text-transform:none;white-space:normal" transform="scale(3.7796)"/><path d="M4.31 1.058c-1.866 0-3.375 1.539-3.375 3.44v8.467c0 1.9 1.57 3.439 3.435 3.439h8.2c1.866 0 3.427-1.538 3.427-3.44V4.498c0-1.9-1.51-3.439-3.375-3.439h-.097c1.794.087 3.214 1.582 3.214 3.432v7.937c0 1.906-1.506 3.44-3.377 3.44h-7.79c-1.871 0-3.377-1.534-3.377-3.44V4.49c0-1.85 1.42-3.345 3.214-3.432z" opacity=".03" style="font-feature-settings:normal;font-variant-alternates:normal;font-variant-caps:normal;font-variant-east-asian:normal;font-variant-ligatures:normal;font-variant-numeric:normal;font-variant-position:normal;font-variation-settings:normal;inline-size:0;isolation:auto;mix-blend-mode:normal;shape-margin:0;shape-padding:0;text-decoration-color:#000;text-decoration-line:none;text-decoration-style:solid;text-indent:0;text-orientation:mixed;text-transform:none;white-space:normal" transform="scale(3.7796)"/><path d="M4 46.969V49c0 6.648 5.896 12 12.544 12h30.961C54.153 61 60 55.648 60 49v-1.992a12.97 12.97 0 0 1-13 12.963H17.002A12.973 12.973 0 0 1 4 46.969" opacity=".03" style="font-feature-settings:normal;font-variant-alternates:normal;font-variant-caps:normal;font-variant-east-asian:normal;font-variant-ligatures:normal;font-variant-numeric:normal;font-variant-position:normal;font-variation-settings:normal;inline-size:0;isolation:auto;mix-blend-mode:normal;shape-margin:0;shape-padding:0;text-decoration-color:#000;text-decoration-line:none;text-decoration-style:solid;text-indent:0;text-orientation:mixed;text-transform:none;white-space:normal"/><path d="M1.058 11.906v.592c0 1.939 1.573 3.5 3.332 3.5h8.16c1.76 0 3.325-1.561 3.325-3.5v-.58c-.006 2.095-1.537 3.78-3.44 3.78H4.498c-1.905 0-3.44-1.692-3.44-3.792" opacity=".05" style="font-feature-settings:normal;font-variant-alternates:normal;font-variant-caps:normal;font-variant-east-asian:normal;font-variant-ligatures:normal;font-variant-numeric:normal;font-variant-position:normal;font-variation-settings:normal;inline-size:0;isolation:auto;mix-blend-mode:normal;shape-margin:0;shape-padding:0;text-decoration-color:#000;text-decoration-line:none;text-decoration-style:solid;text-indent:0;text-orientation:mixed;text-transform:none;white-space:normal" transform="scale(3.7796)"/></g><rect width="56" height="56" x="4" y="4" fill="url(#a)" rx="13.002" ry="13.002"/><g stroke-width="1.333"><path d="M18.668 17A2.66 2.66 0 0 0 16 19.666v10.668A2.663 2.663 0 0 0 18.668 33 2.66 2.66 0 0 0 16 35.666v10.668A2.663 2.663 0 0 0 18.668 49h10.666c1.47 0 2.66-1.188 2.666-2.656A2.663 2.663 0 0 0 34.668 49h10.666a2.666 2.666 0 0 0 2.668-2.666V35.666A2.663 2.663 0 0 0 45.334 33 2.665 2.665 0 0 0 48 30.334V19.666A2.66 2.66 0 0 0 45.334 17H34.668A2.66 2.66 0 0 0 32 19.666 2.66 2.66 0 0 0 29.334 17zm0 1.334h10.666c.74 0 1.334.592 1.334 1.332v10.668c0 .74-.594 1.332-1.334 1.332H18.668c-.74 0-1.334-.592-1.334-1.332V19.666c0-.74.594-1.332 1.334-1.332m16 0h10.666c.74 0 1.334.592 1.334 1.332v10.668c0 .74-.594 1.332-1.334 1.332H34.668c-.74 0-1.334-.592-1.334-1.332V19.666c0-.74.594-1.332 1.334-1.332M20 19.666c-.74 0-1.332.594-1.332 1.334v8c0 .735.592 1.334 1.332 1.334h8c.735 0 1.334-.6 1.334-1.334v-8c0-.74-.6-1.334-1.334-1.334zm16 0c-.74 0-1.332.594-1.332 1.334v8c0 .735.592 1.334 1.332 1.334h8c.735 0 1.334-.6 1.334-1.334v-8c0-.74-.6-1.334-1.334-1.334zm-4 10.668A2.663 2.663 0 0 0 34.668 33 2.66 2.66 0 0 0 32 35.656 2.66 2.66 0 0 0 29.334 33 2.665 2.665 0 0 0 32 30.334m-13.332 3.998h10.666c.74 0 1.334.594 1.334 1.334v10.668c0 .74-.594 1.332-1.334 1.332H18.668c-.74 0-1.334-.592-1.334-1.332V35.666c0-.74.594-1.334 1.334-1.334m16 0h10.666c.74 0 1.334.594 1.334 1.334v10.668c0 .74-.594 1.332-1.334 1.332H34.668c-.74 0-1.334-.592-1.334-1.332V35.666c0-.74.594-1.334 1.334-1.334M20 35.666c-.74 0-1.332.594-1.332 1.334v8A1.33 1.33 0 0 0 20 46.332h8c.735 0 1.334-.597 1.334-1.332v-8c0-.74-.6-1.334-1.334-1.334zm16 0c-.74 0-1.332.594-1.332 1.334v8A1.33 1.33 0 0 0 36 46.332h8c.735 0 1.334-.597 1.334-1.332v-8c0-.74-.6-1.334-1.334-1.334z" filter="url(#b)" opacity=".15"/><path fill="url(#c)" d="M18.667 16A2.66 2.66 0 0 0 16 18.667v10.667A2.663 2.663 0 0 0 18.667 32h10.667a2.666 2.666 0 0 0 2.667-2.666V18.667A2.663 2.663 0 0 0 29.334 16zm0 1.333h10.667c.74 0 1.333.594 1.333 1.334v10.667c0 .74-.593 1.333-1.333 1.333H18.667c-.74 0-1.333-.593-1.333-1.333V18.667c0-.74.593-1.334 1.333-1.334M20 18.667c-.74 0-1.333.593-1.333 1.333v8c0 .735.593 1.333 1.333 1.333h8c.735 0 1.334-.598 1.334-1.333v-8c0-.74-.6-1.333-1.334-1.333zM34.667 32a2.66 2.66 0 0 0-2.666 2.666v10.667A2.663 2.663 0 0 0 34.667 48h10.667a2.666 2.666 0 0 0 2.667-2.667V34.666A2.663 2.663 0 0 0 45.334 32zm0 1.333h10.667c.74 0 1.334.593 1.334 1.333v10.667a1.33 1.33 0 0 1-1.334 1.334H34.667c-.74 0-1.333-.594-1.333-1.334V34.666c0-.74.593-1.333 1.333-1.333m1.334 1.333A1.33 1.33 0 0 0 34.667 36v8c0 .734.594 1.333 1.334 1.333h8c.734 0 1.333-.599 1.333-1.333v-8c0-.74-.599-1.334-1.333-1.334z"/><path fill="url(#d)" d="M34.667 16A2.66 2.66 0 0 0 32 18.667v10.667A2.663 2.663 0 0 0 34.667 32h10.667a2.666 2.666 0 0 0 2.667-2.666V18.667A2.663 2.663 0 0 0 45.334 16zm0 1.333h10.667c.74 0 1.333.594 1.333 1.334v10.667c0 .74-.593 1.333-1.333 1.333H34.667c-.74 0-1.333-.593-1.333-1.333V18.667c0-.74.593-1.334 1.333-1.334M36 18.667c-.74 0-1.333.593-1.333 1.333v8c0 .735.593 1.333 1.333 1.333h8c.735 0 1.334-.598 1.334-1.333v-8c0-.74-.6-1.333-1.334-1.333zM18.667 32a2.66 2.66 0 0 0-2.666 2.666v10.667A2.663 2.663 0 0 0 18.667 48h10.667a2.666 2.666 0 0 0 2.667-2.667V34.666A2.663 2.663 0 0 0 29.334 32zm0 1.333h10.667c.74 0 1.334.593 1.334 1.333v10.667a1.33 1.33 0 0 1-1.334 1.334H18.667c-.74 0-1.333-.594-1.333-1.334V34.666c0-.74.593-1.333 1.333-1.333m1.334 1.333A1.33 1.33 0 0 0 18.667 36v8c0 .734.594 1.333 1.334 1.333h8c.734 0 1.333-.599 1.333-1.333v-8c0-.74-.599-1.334-1.333-1.334z"/></g></svg>
